images/icons/discord.svg

<svg fill="#000000" xmlns="http://www.w3.org/2000/svg"  viewBox="0 0 50 50" width="30px" height="30px"><path d="M 18.90625 7 C 18.90625 7 12.539063 7.4375 8.375 10.78125 C 8.355469 10.789063 8.332031 10.800781 8.3125 10.8125 C 7.589844 11.480469 7.046875 12.515625 6.375 14 C 5.703125 15.484375 4.992188 17.394531 4.34375 19.53125 C 3.050781 23.808594 2 29.058594 2 34 C 1.996094 34.175781 2.039063 34.347656 2.125 34.5 C 3.585938 37.066406 6.273438 38.617188 8.78125 39.59375 C 11.289063 40.570313 13.605469 40.960938 14.78125 41 C 15.113281 41.011719 15.429688 40.859375 15.625 40.59375 L 18.0625 37.21875 C 20.027344 37.683594 22.332031 38 25 38 C 27.667969 38 29.972656 37.683594 31.9375 37.21875 L 34.375 40.59375 C 34.570313 40.859375 34.886719 41.011719 35.21875 41 C 36.394531 40.960938 38.710938 40.570313 41.21875 39.59375 C 43.726563 38.617188 46.414063 37.066406 47.875 34.5 C 47.960938 34.347656 48.003906 34.175781 48 34 C 48 29.058594 46.949219 23.808594 45.65625 19.53125 C 45.007813 17.394531 44.296875 15.484375 43.625 14 C 42.953125 12.515625 42.410156 11.480469 41.6875 10.8125 C 41.667969 10.800781 41.644531 10.789063 41.625 10.78125 C 37.460938 7.4375 31.09375 7 31.09375 7 C 31.019531 6.992188 30.949219 6.992188 30.875 7 C 30.527344 7.046875 30.234375 7.273438 30.09375 7.59375 C 30.09375 7.59375 29.753906 8.339844 29.53125 9.40625 C 27.582031 9.09375 25.941406 9 25 9 C 24.058594 9 22.417969 9.09375 20.46875 9.40625 C 20.246094 8.339844 19.90625 7.59375 19.90625 7.59375 C 19.734375 7.203125 19.332031 6.964844 18.90625 7 Z M 18.28125 9.15625 C 18.355469 9.359375 18.40625 9.550781 18.46875 9.78125 C 16.214844 10.304688 13.746094 11.160156 11.4375 12.59375 C 11.074219 12.746094 10.835938 13.097656 10.824219 13.492188 C 10.816406 13.882813 11.039063 14.246094 11.390625 14.417969 C 11.746094 14.585938 12.167969 14.535156 12.46875 14.28125 C 17.101563 11.410156 22.996094 11 25 11 C 27.003906 11 32.898438 11.410156 37.53125 14.28125 C 37.832031 14.535156 38.253906 14.585938 38.609375 14.417969 C 38.960938 14.246094 39.183594 13.882813 39.175781 13.492188 C 39.164063 13.097656 38.925781 12.746094 38.5625 12.59375 C 36.253906 11.160156 33.785156 10.304688 31.53125 9.78125 C 31.59375 9.550781 31.644531 9.359375 31.71875 9.15625 C 32.859375 9.296875 37.292969 9.894531 40.3125 12.28125 C 40.507813 12.460938 41.1875 13.460938 41.8125 14.84375 C 42.4375 16.226563 43.09375 18.027344 43.71875 20.09375 C 44.9375 24.125 45.921875 29.097656 45.96875 33.65625 C 44.832031 35.496094 42.699219 36.863281 40.5 37.71875 C 38.5 38.496094 36.632813 38.84375 35.65625 38.9375 L 33.96875 36.65625 C 34.828125 36.378906 35.601563 36.078125 36.28125 35.78125 C 38.804688 34.671875 40.15625 33.5 40.15625 33.5 C 40.570313 33.128906 40.605469 32.492188 40.234375 32.078125 C 39.863281 31.664063 39.226563 31.628906 38.8125 32 C 38.8125 32 37.765625 32.957031 35.46875 33.96875 C 34.625 34.339844 33.601563 34.707031 32.4375 35.03125 C 32.167969 35 31.898438 35.078125 31.6875 35.25 C 29.824219 35.703125 27.609375 36 25 36 C 22.371094 36 20.152344 35.675781 18.28125 35.21875 C 18.070313 35.078125 17.8125 35.019531 17.5625 35.0625 C 16.394531 34.738281 15.378906 34.339844 14.53125 33.96875 C 12.234375 32.957031 11.1875 32 11.1875 32 C 10.960938 31.789063 10.648438 31.699219 10.34375 31.75 C 9.957031 31.808594 9.636719 32.085938 9.53125 32.464844 C 9.421875 32.839844 9.546875 33.246094 9.84375 33.5 C 9.84375 33.5 11.195313 34.671875 13.71875 35.78125 C 14.398438 36.078125 15.171875 36.378906 16.03125 36.65625 L 14.34375 38.9375 C 13.367188 38.84375 11.5 38.496094 9.5 37.71875 C 7.300781 36.863281 5.167969 35.496094 4.03125 33.65625 C 4.078125 29.097656 5.0625 24.125 6.28125 20.09375 C 6.90625 18.027344 7.5625 16.226563 8.1875 14.84375 C 8.8125 13.460938 9.492188 12.460938 9.6875 12.28125 C 12.707031 9.894531 17.140625 9.296875 18.28125 9.15625 Z M 18.5 21 C 15.949219 21 14 23.316406 14 26 C 14 28.683594 15.949219 31 18.5 31 C 21.050781 31 23 28.683594 23 26 C 23 23.316406 21.050781 21 18.5 21 Z M 31.5 21 C 28.949219 21 27 23.316406 27 26 C 27 28.683594 28.949219 31 31.5 31 C 34.050781 31 36 28.683594 36 26 C 36 23.316406 34.050781 21 31.5 21 Z M 18.5 23 C 19.816406 23 21 24.265625 21 26 C 21 27.734375 19.816406 29 18.5 29 C 17.183594 29 16 27.734375 16 26 C 16 24.265625 17.183594 23 18.5 23 Z M 31.5 23 C 32.816406 23 34 24.265625 34 26 C 34 27.734375 32.816406 29 31.5 29 C 30.183594 29 29 27.734375 29 26 C 29 24.265625 30.183594 23 31.5 23 Z"/></svg>

<svg xmlns="http://www.w3.org/2000/svg" viewBox="0 0 50 50" width="30" height="30"><path d="M18.906 7s-6.367.438-10.531 3.781a.466.466 0 0 0-.063.031C7.59 11.48 7.048 12.517 6.375 14c-.672 1.484-1.383 3.395-2.031 5.531C3.05 23.81 2 29.06 2 34a.971.971 0 0 0 .125.5c1.46 2.566 4.148 4.117 6.656 5.094 2.508.976 4.824 1.367 6 1.406.332.012.649-.14.844-.406l2.438-3.375c1.964.465 4.269.781 6.937.781s4.973-.316 6.938-.781l2.437 3.375c.195.265.512.418.844.406 1.176-.04 3.492-.43 6-1.406 2.508-.977 5.195-2.528 6.656-5.094A.971.971 0 0 0 48 34c0-4.941-1.05-10.191-2.344-14.469-.648-2.136-1.36-4.047-2.031-5.531-.672-1.484-1.215-2.52-1.938-3.188a.466.466 0 0 0-.062-.03C37.461 7.436 31.094 7 31.094 7a1.024 1.024 0 0 0-.219 0 1 1 0 0 0-.781.594s-.34.746-.563 1.812C27.582 9.094 25.941 9 25 9c-.941 0-2.582.094-4.531.406a9.509 9.509 0 0 0-.563-1.812 1.002 1.002 0 0 0-1-.594Zm-.625 2.156c.074.203.125.395.188.625-2.254.524-4.723 1.38-7.032 2.813a1.004 1.004 0 0 0-.613.898c-.008.39.215.754.567.926.355.168.777.117 1.078-.137C17.102 11.411 22.996 11 25 11c2.004 0 7.898.41 12.531 3.281.301.254.723.305 1.078.137.352-.172.575-.535.567-.926a1.004 1.004 0 0 0-.614-.898c-2.308-1.434-4.777-2.29-7.03-2.813.062-.23.113-.422.187-.625 1.14.14 5.574.739 8.593 3.125.196.18.876 1.18 1.5 2.563.626 1.383 1.282 3.183 1.907 5.25 1.218 4.031 2.203 9.004 2.25 13.562-1.137 1.84-3.27 3.207-5.469 4.063-2 .777-3.867 1.125-4.844 1.218l-1.687-2.28a24.85 24.85 0 0 0 2.312-.876c2.524-1.11 3.875-2.281 3.875-2.281a1.007 1.007 0 0 0-1.343-1.5s-1.047.957-3.344 1.969c-.844.37-1.867.738-3.032 1.062a1.003 1.003 0 0 0-.75.219c-1.863.453-4.078.75-6.687.75-2.629 0-4.848-.324-6.719-.781a.996.996 0 0 0-.718-.157 22.582 22.582 0 0 1-3.032-1.093C12.234 32.957 11.187 32 11.187 32a.996.996 0 0 0-.843-.25.999.999 0 0 0-.5 1.75s1.351 1.172 3.875 2.281c.68.297 1.453.598 2.312.875l-1.687 2.282c-.977-.094-2.844-.442-4.844-1.22-2.2-.855-4.332-2.222-5.469-4.062.047-4.558 1.032-9.531 2.25-13.562.625-2.067 1.282-3.867 1.907-5.25.624-1.383 1.304-2.383 1.5-2.563 3.019-2.386 7.453-2.984 8.593-3.125ZM18.5 21c-2.55 0-4.5 2.316-4.5 5s1.95 5 4.5 5 4.5-2.316 4.5-5-1.95-5-4.5-5Zm13 0c-2.55 0-4.5 2.316-4.5 5s1.95 5 4.5 5 4.5-2.316 4.5-5-1.95-5-4.5-5Zm-13 2c1.316 0 2.5 1.266 2.5 3s-1.184 3-2.5 3-2.5-1.266-2.5-3 1.184-3 2.5-3Zm13 0c1.316 0 2.5 1.266 2.5 3s-1.184 3-2.5 3-2.5-1.266-2.5-3 1.184-3 2.5-3Z"/></svg>
